icons/graphql/graphql-plain-wordmark.svg

<?xml version="1.0" encoding="UTF-8"?>
<svg xmlns="http://www.w3.org/2000/svg" xmlns:xlink="http://www.w3.org/1999/xlink" width="128px" height="128px" viewBox="0 0 128 128" version="1.1">
<g id="surface1">
<path fill="#E434AA" d="M 35.386719 71.789062 L 32.5 70.128906 L 64.652344 14.699219 L 67.535156 16.355469 Z M 35.386719 71.789062 "/>
<path fill="#E434AA" d="M 31.839844 65.699219 L 96.140625 65.699219 L 96.140625 69.019531 L 31.839844 69.019531 Z M 31.839844 65.699219 "/>
<path fill="#E434AA" d="M 65.273438 86.050781 L 33.113281 67.566406 L 34.777344 64.691406 L 66.941406 83.175781 Z M 65.273438 86.050781 "/>
<path fill="#E434AA" d="M 93.214844 37.871094 L 61.050781 19.386719 L 62.71875 16.515625 L 94.878906 35 Z M 93.214844 37.871094 "/>
<path fill="#E434AA" d="M 34.785156 37.859375 L 33.121094 34.988281 L 65.285156 16.503906 L 66.949219 19.375 Z M 34.785156 37.859375 "/>
<path fill="#E434AA" d="M 92.621094 71.789062 L 60.46875 16.355469 L 63.355469 14.699219 L 95.507812 70.128906 Z M 92.621094 71.789062 "/>
<path fill="#E434AA" d="M 34.390625 32.789062 L 37.722656 32.789062 L 37.722656 69.757812 L 34.390625 69.757812 Z M 34.390625 32.789062 "/>
<path fill="#E434AA" d="M 90.277344 32.789062 L 93.609375 32.789062 L 93.609375 69.757812 L 90.277344 69.757812 Z M 90.277344 32.789062 "/>
<path fill="#E434AA" d="M 64.707031 84.644531 L 63.25 82.136719 L 91.222656 66.058594 L 92.679688 68.566406 Z M 64.707031 84.644531 "/>
<path fill="#E434AA" d="M 98.027344 70.835938 C 96.101562 74.175781 91.804688 75.3125 88.453125 73.394531 C 85.097656 71.476562 83.953125 67.199219 85.882812 63.863281 C 87.808594 60.523438 92.105469 59.386719 95.457031 61.304688 C 98.832031 63.242188 99.976562 67.5 98.027344 70.835938 "/>
<path fill="#E434AA" d="M 42.097656 38.683594 C 40.171875 42.019531 35.875 43.160156 32.523438 41.242188 C 29.167969 39.320312 28.023438 35.046875 29.953125 31.707031 C 31.878906 28.371094 36.175781 27.230469 39.527344 29.148438 C 42.878906 31.089844 44.023438 35.34375 42.097656 38.683594 "/>
<path fill="#E434AA" d="M 29.972656 70.835938 C 28.042969 67.5 29.1875 63.242188 32.542969 61.304688 C 35.894531 59.386719 40.171875 60.523438 42.117188 63.863281 C 44.046875 67.199219 42.902344 71.457031 39.546875 73.394531 C 36.175781 75.3125 31.898438 74.175781 29.972656 70.835938 "/>
<path fill="#E434AA" d="M 85.902344 38.683594 C 83.976562 35.34375 85.121094 31.089844 88.472656 29.148438 C 91.824219 27.230469 96.101562 28.371094 98.046875 31.707031 C 99.976562 35.046875 98.832031 39.300781 95.476562 41.242188 C 92.125 43.160156 87.828125 42.019531 85.902344 38.683594 "/>
<path fill="#E434AA" d="M 64 90.402344 C 60.125 90.402344 56.992188 87.285156 56.992188 83.425781 C 56.992188 79.570312 60.125 76.453125 64 76.453125 C 67.875 76.453125 71.007812 79.570312 71.007812 83.425781 C 71.007812 87.261719 67.875 90.402344 64 90.402344 "/>
<path fill="#E434AA" d="M 64 26.09375 C 60.125 26.09375 56.992188 22.976562 56.992188 19.117188 C 56.992188 15.261719 60.125 12.144531 64 12.144531 C 67.875 12.144531 71.007812 15.261719 71.007812 19.117188 C 71.007812 22.976562 67.875 26.09375 64 26.09375 "/>
<path fill="#E434AA" d="M 106.625 121.507812 C 106.4375 121.507812 106.289062 121.453125 106.175781 121.339844 C 106.0625 121.226562 106.003906 121.078125 106.003906 120.890625 L 106.003906 102.425781 C 106.003906 102.238281 106.0625 102.085938 106.175781 101.972656 C 106.289062 101.859375 106.4375 101.804688 106.625 101.804688 L 107.164062 101.804688 C 107.351562 101.804688 107.503906 101.859375 107.617188 101.972656 C 107.730469 102.085938 107.785156 102.238281 107.785156 102.425781 L 107.785156 119.820312 L 117.542969 119.820312 C 117.75 119.820312 117.910156 119.875 118.023438 119.988281 C 118.136719 120.101562 118.191406 120.261719 118.191406 120.464844 L 118.191406 120.890625 C 118.191406 121.078125 118.136719 121.226562 118.023438 121.339844 C 117.910156 121.453125 117.75 121.507812 117.542969 121.507812 Z M 106.625 121.507812 "/>
<path fill="#E434AA" d="M 100.09375 123.335938 C 99.886719 123.335938 99.707031 123.257812 99.558594 123.097656 C 99.40625 122.9375 99.285156 122.804688 99.191406 122.691406 L 97.945312 120.972656 C 96.816406 121.515625 95.496094 121.789062 93.988281 121.789062 C 92.421875 121.789062 91.09375 121.511719 90 120.960938 C 88.90625 120.40625 88.066406 119.550781 87.484375 118.398438 C 86.898438 117.242188 86.578125 115.785156 86.523438 114.019531 C 86.503906 113.175781 86.492188 112.386719 86.492188 111.65625 C 86.492188 110.925781 86.503906 110.136719 86.523438 109.292969 C 86.578125 107.546875 86.917969 106.097656 87.539062 104.941406 C 88.160156 103.789062 89.023438 102.929688 90.128906 102.367188 C 91.230469 101.804688 92.515625 101.523438 93.988281 101.523438 C 95.457031 101.523438 96.742188 101.804688 97.847656 102.367188 C 98.949219 102.929688 99.816406 103.789062 100.449219 104.941406 C 101.078125 106.097656 101.414062 107.546875 101.453125 109.292969 C 101.488281 110.136719 101.507812 110.925781 101.507812 111.65625 C 101.507812 112.386719 101.488281 113.175781 101.453125 114.019531 C 101.359375 116.703125 100.667969 118.675781 99.386719 119.933594 L 101.199219 122.464844 C 101.214844 122.484375 101.234375 122.515625 101.253906 122.5625 C 101.273438 122.609375 101.28125 122.679688 101.28125 122.773438 C 101.28125 122.925781 101.226562 123.054688 101.113281 123.167969 C 101 123.28125 100.867188 123.335938 100.71875 123.335938 Z M 93.988281 120.101562 C 95.609375 120.101562 96.941406 119.613281 97.988281 118.636719 C 99.035156 117.660156 99.59375 116.074219 99.671875 113.878906 C 99.707031 113.035156 99.726562 112.292969 99.726562 111.65625 C 99.726562 111.019531 99.707031 110.277344 99.671875 109.433594 C 99.632812 107.96875 99.363281 106.777344 98.863281 105.859375 C 98.363281 104.9375 97.695312 104.269531 96.855469 103.84375 C 96.019531 103.421875 95.0625 103.210938 93.988281 103.210938 C 92.929688 103.210938 91.984375 103.421875 91.144531 103.84375 C 90.304688 104.269531 89.636719 104.9375 89.136719 105.859375 C 88.636719 106.777344 88.359375 107.96875 88.304688 109.433594 C 88.285156 110.277344 88.273438 111.019531 88.273438 111.65625 C 88.273438 112.292969 88.285156 113.035156 88.304688 113.878906 C 88.378906 116.074219 88.945312 117.660156 90 118.636719 C 91.054688 119.613281 92.382812 120.101562 93.988281 120.101562 Z M 93.988281 120.101562 "/>
<path fill="#E434AA" d="M 70.855469 121.507812 C 70.667969 121.507812 70.519531 121.453125 70.40625 121.339844 C 70.292969 121.226562 70.234375 121.078125 70.234375 120.890625 L 70.234375 102.140625 C 70.234375 101.953125 70.292969 101.804688 70.40625 101.691406 C 70.519531 101.578125 70.667969 101.523438 70.855469 101.523438 L 71.335938 101.523438 C 71.527344 101.523438 71.675781 101.578125 71.789062 101.691406 C 71.902344 101.804688 71.960938 101.953125 71.960938 102.140625 L 71.960938 108.8125 C 72.46875 108.15625 73.085938 107.621094 73.8125 107.210938 C 74.539062 106.796875 75.503906 106.589844 76.710938 106.589844 C 77.992188 106.589844 79.0625 106.867188 79.917969 107.421875 C 80.777344 107.972656 81.417969 108.722656 81.84375 109.671875 C 82.265625 110.621094 82.480469 111.695312 82.480469 112.894531 L 82.480469 120.890625 C 82.480469 121.078125 82.421875 121.226562 82.308594 121.339844 C 82.195312 121.453125 82.046875 121.507812 81.855469 121.507812 L 81.375 121.507812 C 81.1875 121.507812 81.035156 121.453125 80.921875 121.339844 C 80.808594 121.226562 80.753906 121.078125 80.753906 120.890625 L 80.753906 113.035156 C 80.753906 111.535156 80.386719 110.355469 79.652344 109.503906 C 78.914062 108.648438 77.839844 108.222656 76.425781 108.222656 C 75.089844 108.222656 74.011719 108.648438 73.191406 109.503906 C 72.371094 110.355469 71.960938 111.535156 71.960938 113.035156 L 71.960938 120.890625 C 71.960938 121.078125 71.902344 121.226562 71.789062 121.339844 C 71.675781 121.453125 71.527344 121.507812 71.335938 121.507812 Z M 70.855469 121.507812 "/>
<path fill="#E434AA" d="M 54.429688 126.855469 C 54.238281 126.855469 54.089844 126.800781 53.976562 126.6875 C 53.863281 126.574219 53.804688 126.425781 53.804688 126.238281 L 53.804688 107.492188 C 53.804688 107.304688 53.863281 107.152344 53.976562 107.039062 C 54.089844 106.925781 54.238281 106.871094 54.429688 106.871094 L 54.910156 106.871094 C 55.097656 106.871094 55.25 106.925781 55.363281 107.039062 C 55.476562 107.152344 55.53125 107.304688 55.53125 107.492188 L 55.53125 108.8125 C 56.003906 108.175781 56.621094 107.644531 57.382812 107.222656 C 58.148438 106.800781 59.113281 106.589844 60.28125 106.589844 C 61.394531 106.589844 62.328125 106.78125 63.082031 107.167969 C 63.835938 107.550781 64.449219 108.0625 64.917969 108.699219 C 65.390625 109.339844 65.738281 110.050781 65.964844 110.839844 C 66.191406 111.628906 66.3125 112.433594 66.332031 113.261719 C 66.351562 113.542969 66.359375 113.851562 66.359375 114.191406 C 66.359375 114.527344 66.351562 114.835938 66.332031 115.117188 C 66.3125 115.945312 66.191406 116.75 65.964844 117.539062 C 65.738281 118.328125 65.390625 119.039062 64.917969 119.679688 C 64.449219 120.316406 63.835938 120.828125 63.082031 121.210938 C 62.328125 121.597656 61.394531 121.789062 60.28125 121.789062 C 59.113281 121.789062 58.148438 121.574219 57.382812 121.140625 C 56.621094 120.710938 56.003906 120.183594 55.53125 119.566406 L 55.53125 126.238281 C 55.53125 126.425781 55.476562 126.574219 55.363281 126.6875 C 55.25 126.800781 55.097656 126.855469 54.910156 126.855469 Z M 60.113281 120.15625 C 61.222656 120.15625 62.101562 119.914062 62.742188 119.425781 C 63.382812 118.9375 63.84375 118.300781 64.128906 117.511719 C 64.410156 116.722656 64.570312 115.878906 64.609375 114.976562 C 64.625 114.453125 64.625 113.925781 64.609375 113.402344 C 64.570312 112.5 64.410156 111.65625 64.128906 110.867188 C 63.84375 110.082031 63.382812 109.441406 62.742188 108.953125 C 62.101562 108.464844 61.222656 108.222656 60.113281 108.222656 C 59.039062 108.222656 58.171875 108.476562 57.511719 108.980469 C 56.851562 109.488281 56.367188 110.121094 56.054688 110.882812 C 55.742188 111.640625 55.570312 112.40625 55.53125 113.175781 C 55.511719 113.457031 55.503906 113.824219 55.503906 114.273438 C 55.503906 114.722656 55.511719 115.089844 55.53125 115.371094 C 55.550781 116.121094 55.722656 116.863281 56.054688 117.59375 C 56.382812 118.328125 56.882812 118.9375 57.554688 119.425781 C 58.222656 119.914062 59.074219 120.15625 60.113281 120.15625 Z M 60.113281 120.15625 "/>
<path fill="#E434AA" d="M 42.582031 121.789062 C 41.675781 121.789062 40.839844 121.601562 40.078125 121.226562 C 39.316406 120.851562 38.699219 120.347656 38.226562 119.71875 C 37.753906 119.09375 37.519531 118.382812 37.519531 117.59375 C 37.519531 116.320312 38.039062 115.296875 39.074219 114.527344 C 40.109375 113.757812 41.457031 113.261719 43.117188 113.035156 L 47.585938 112.417969 L 47.585938 111.429688 C 47.585938 110.4375 47.277344 109.652344 46.667969 109.082031 C 46.054688 108.507812 45.078125 108.222656 43.738281 108.222656 C 42.757812 108.222656 41.96875 108.414062 41.363281 108.800781 C 40.761719 109.183594 40.347656 109.6875 40.121094 110.304688 C 40.027344 110.585938 39.847656 110.726562 39.582031 110.726562 L 39.132812 110.726562 C 38.90625 110.726562 38.746094 110.667969 38.648438 110.542969 C 38.554688 110.421875 38.507812 110.277344 38.507812 110.109375 C 38.507812 109.84375 38.609375 109.515625 38.804688 109.125 C 39.003906 108.730469 39.308594 108.339844 39.726562 107.953125 C 40.140625 107.570312 40.675781 107.246094 41.335938 106.984375 C 41.996094 106.722656 42.796875 106.589844 43.738281 106.589844 C 44.851562 106.589844 45.769531 106.738281 46.496094 107.039062 C 47.222656 107.339844 47.789062 107.730469 48.195312 108.207031 C 48.597656 108.6875 48.886719 109.21875 49.054688 109.796875 C 49.226562 110.378906 49.308594 110.953125 49.308594 111.515625 L 49.308594 120.890625 C 49.308594 121.078125 49.253906 121.226562 49.140625 121.339844 C 49.027344 121.453125 48.875 121.507812 48.6875 121.507812 L 48.207031 121.507812 C 48.019531 121.507812 47.867188 121.453125 47.753906 121.339844 C 47.640625 121.226562 47.585938 121.078125 47.585938 120.890625 L 47.585938 119.566406 C 47.359375 119.902344 47.039062 120.242188 46.625 120.578125 C 46.210938 120.917969 45.675781 121.203125 45.027344 121.4375 C 44.375 121.671875 43.5625 121.789062 42.582031 121.789062 Z M 42.863281 120.15625 C 43.730469 120.15625 44.523438 119.96875 45.238281 119.59375 C 45.953125 119.21875 46.523438 118.640625 46.949219 117.863281 C 47.375 117.085938 47.585938 116.105469 47.585938 114.921875 L 47.585938 113.964844 L 43.9375 114.472656 C 42.390625 114.675781 41.222656 115.035156 40.429688 115.539062 C 39.640625 116.046875 39.242188 116.683594 39.242188 117.453125 C 39.242188 118.074219 39.421875 118.582031 39.78125 118.976562 C 40.140625 119.367188 40.597656 119.664062 41.152344 119.859375 C 41.707031 120.058594 42.277344 120.15625 42.863281 120.15625 Z M 42.863281 120.15625 "/>
<path fill="#E434AA" d="M 29.628906 121.507812 C 29.441406 121.507812 29.289062 121.453125 29.175781 121.339844 C 29.066406 121.226562 29.007812 121.078125 29.007812 120.890625 L 29.007812 107.519531 C 29.007812 107.332031 29.066406 107.175781 29.175781 107.054688 C 29.289062 106.933594 29.441406 106.871094 29.628906 106.871094 L 30.082031 106.871094 C 30.269531 106.871094 30.425781 106.933594 30.550781 107.054688 C 30.671875 107.175781 30.734375 107.332031 30.734375 107.519531 L 30.734375 108.8125 C 31.070312 108.15625 31.5625 107.667969 32.203125 107.351562 C 32.84375 107.03125 33.636719 106.871094 34.578125 106.871094 L 35.625 106.871094 C 35.8125 106.871094 35.964844 106.925781 36.078125 107.039062 C 36.191406 107.152344 36.246094 107.304688 36.246094 107.492188 L 36.246094 107.882812 C 36.246094 108.074219 36.191406 108.222656 36.078125 108.335938 C 35.964844 108.449219 35.8125 108.503906 35.625 108.503906 L 34.410156 108.503906 C 33.277344 108.503906 32.382812 108.832031 31.722656 109.488281 C 31.0625 110.144531 30.734375 111.039062 30.734375 112.164062 L 30.734375 120.890625 C 30.734375 121.078125 30.671875 121.226562 30.550781 121.339844 C 30.425781 121.453125 30.269531 121.507812 30.082031 121.507812 Z M 29.628906 121.507812 "/>
<path fill="#E434AA" d="M 17.386719 121.789062 C 15.765625 121.789062 14.402344 121.476562 13.300781 120.847656 C 12.199219 120.21875 11.359375 119.339844 10.785156 118.214844 C 10.207031 117.089844 9.894531 115.792969 9.835938 114.332031 C 9.816406 113.484375 9.808594 112.59375 9.808594 111.65625 C 9.808594 110.71875 9.816406 109.828125 9.835938 108.980469 C 9.894531 107.5 10.207031 106.199219 10.785156 105.082031 C 11.359375 103.96875 12.203125 103.09375 13.316406 102.464844 C 14.425781 101.835938 15.785156 101.523438 17.386719 101.523438 C 18.6875 101.523438 19.800781 101.714844 20.722656 102.101562 C 21.648438 102.484375 22.402344 102.964844 22.984375 103.535156 C 23.570312 104.109375 24.003906 104.683594 24.285156 105.265625 C 24.570312 105.847656 24.71875 106.335938 24.738281 106.730469 C 24.757812 106.898438 24.710938 107.035156 24.597656 107.136719 C 24.484375 107.242188 24.332031 107.292969 24.144531 107.292969 L 23.523438 107.292969 C 23.351562 107.292969 23.230469 107.25 23.15625 107.167969 C 23.078125 107.082031 23.003906 106.9375 22.929688 106.730469 C 22.738281 106.148438 22.425781 105.589844 21.980469 105.054688 C 21.539062 104.519531 20.945312 104.078125 20.199219 103.734375 C 19.457031 103.386719 18.515625 103.210938 17.386719 103.210938 C 15.707031 103.210938 14.347656 103.667969 13.300781 104.578125 C 12.253906 105.488281 11.695312 107.003906 11.617188 109.125 C 11.5625 110.8125 11.5625 112.5 11.617188 114.191406 C 11.695312 116.292969 12.253906 117.800781 13.300781 118.722656 C 14.347656 119.640625 15.707031 120.101562 17.386719 120.101562 C 18.5 120.101562 19.496094 119.890625 20.382812 119.46875 C 21.269531 119.046875 21.96875 118.398438 22.476562 117.523438 C 22.984375 116.652344 23.238281 115.539062 23.238281 114.191406 L 23.238281 112.753906 L 18.320312 112.753906 C 18.132812 112.753906 17.980469 112.691406 17.867188 112.570312 C 17.753906 112.449219 17.699219 112.292969 17.699219 112.105469 L 17.699219 111.710938 C 17.699219 111.507812 17.753906 111.347656 17.867188 111.234375 C 17.980469 111.121094 18.132812 111.066406 18.320312 111.066406 L 24.371094 111.066406 C 24.578125 111.066406 24.738281 111.121094 24.851562 111.234375 C 24.964844 111.347656 25.019531 111.507812 25.019531 111.710938 L 25.019531 114.191406 C 25.019531 115.691406 24.722656 117.015625 24.128906 118.160156 C 23.535156 119.304688 22.667969 120.195312 21.527344 120.832031 C 20.386719 121.46875 19.007812 121.789062 17.386719 121.789062 Z M 17.386719 121.789062 "/>
</g>
</svg>

<svg xmlns="http://www.w3.org/2000/svg" viewBox="0 0 128 128"><g fill="#E434AA"><path d="M35.387 71.79L32.5 70.128l32.152-55.43 2.883 1.656zm0 0"/><path d="M31.84 65.7h64.3v3.32h-64.3zm0 0"/><path d="M65.273 86.05l-32.16-18.484 1.664-2.875 32.164 18.485zm0 0M93.215 37.871L61.05 19.387l1.668-2.871L94.879 35zm0 0"/><path d="M34.785 37.86l-1.664-2.872 32.164-18.484 1.664 2.871zm0 0"/><path d="M92.621 71.79L60.47 16.354l2.886-1.656 32.153 55.43zm0 0M34.39 32.79h3.333v36.968H34.39zm0 0"/><path d="M90.277 32.79h3.332v36.968h-3.332zm0 0"/><path d="M64.707 84.645l-1.457-2.508 27.973-16.078 1.457 2.507zm0 0"/><path d="M98.027 70.836c-1.925 3.34-6.222 4.477-9.574 2.559a6.962 6.962 0 01-2.57-9.532c1.926-3.34 6.222-4.476 9.574-2.558 3.375 1.937 4.52 6.195 2.57 9.53M42.098 38.684c-1.926 3.336-6.223 4.476-9.575 2.558a6.967 6.967 0 01-2.57-9.535c1.926-3.336 6.223-4.477 9.574-2.559 3.352 1.942 4.496 6.196 2.57 9.536M29.973 70.836c-1.93-3.336-.785-7.594 2.57-9.531 3.352-1.918 7.629-.782 9.574 2.558 1.93 3.336.785 7.594-2.57 9.532-3.371 1.918-7.649.78-9.574-2.56M85.902 38.684c-1.925-3.34-.78-7.594 2.57-9.536 3.352-1.918 7.63-.777 9.575 2.559 1.93 3.34.785 7.594-2.57 9.535-3.352 1.918-7.649.778-9.575-2.558M64 90.402c-3.875 0-7.008-3.117-7.008-6.976 0-3.856 3.133-6.973 7.008-6.973s7.008 3.117 7.008 6.973c0 3.836-3.133 6.976-7.008 6.976M64 26.094c-3.875 0-7.008-3.117-7.008-6.977 0-3.855 3.133-6.972 7.008-6.972s7.008 3.117 7.008 6.972c0 3.86-3.133 6.977-7.008 6.977M106.625 121.508a.604.604 0 01-.45-.168.606.606 0 01-.171-.45v-18.464c0-.188.058-.34.172-.453a.604.604 0 01.449-.168h.54c.187 0 .339.054.452.168a.613.613 0 01.168.453v17.394h9.758c.207 0 .367.055.48.168.114.114.168.274.168.477v.426a.604.604 0 01-.168.449c-.113.113-.273.168-.48.168zm0 0M100.094 123.336a.704.704 0 01-.535-.238 8.22 8.22 0 01-.368-.407l-1.246-1.718c-1.129.543-2.449.816-3.957.816-1.566 0-2.894-.277-3.988-.828-1.094-.555-1.934-1.41-2.516-2.563-.586-1.156-.906-2.613-.96-4.378-.02-.844-.032-1.633-.032-2.364 0-.73.012-1.52.031-2.363.055-1.746.395-3.195 1.016-4.352.621-1.152 1.484-2.011 2.59-2.574 1.101-.562 2.387-.844 3.86-.844 1.468 0 2.753.282 3.859.844 1.101.563 1.968 1.422 2.601 2.574.63 1.157.965 2.606 1.004 4.352a57.2 57.2 0 01.055 2.363c0 .73-.02 1.52-.055 2.364-.094 2.683-.785 4.656-2.066 5.914l1.812 2.53a.41.41 0 01.055.099c.02.046.027.117.027.21a.535.535 0 01-.168.395.541.541 0 01-.394.168zm-6.106-3.234c1.621 0 2.953-.489 4-1.465 1.047-.977 1.606-2.563 1.684-4.758.035-.844.055-1.586.055-2.223 0-.636-.02-1.379-.055-2.222-.04-1.465-.309-2.657-.809-3.575-.5-.921-1.168-1.59-2.008-2.015-.835-.422-1.793-.633-2.867-.633-1.058 0-2.004.21-2.843.633-.84.426-1.508 1.094-2.008 2.015-.5.918-.778 2.11-.832 3.575-.02.843-.032 1.586-.032 2.222 0 .637.012 1.38.032 2.223.074 2.195.64 3.781 1.695 4.758 1.055.976 2.383 1.465 3.988 1.465zm0 0M70.855 121.508a.604.604 0 01-.449-.168.606.606 0 01-.172-.45v-18.75c0-.187.059-.335.172-.449a.604.604 0 01.45-.168h.48c.191 0 .34.055.453.168a.606.606 0 01.172.45v6.671a6.13 6.13 0 011.852-1.601c.726-.414 1.69-.621 2.898-.621 1.281 0 2.352.277 3.207.832.86.55 1.5 1.3 1.926 2.25.422.95.636 2.023.636 3.223v7.996a.606.606 0 01-.171.449.607.607 0 01-.454.168h-.48a.613.613 0 01-.453-.168.604.604 0 01-.168-.45v-7.855c0-1.5-.367-2.68-1.102-3.531-.738-.856-1.812-1.281-3.226-1.281-1.336 0-2.414.425-3.235 1.28-.82.852-1.23 2.032-1.23 3.532v7.856a.606.606 0 01-.172.449.607.607 0 01-.453.168zm0 0M54.43 126.855a.607.607 0 01-.453-.168.606.606 0 01-.172-.449v-18.746c0-.187.058-.34.172-.453a.607.607 0 01.453-.168h.48c.188 0 .34.055.453.168a.613.613 0 01.168.453v1.32c.473-.636 1.09-1.167 1.852-1.59.765-.421 1.73-.632 2.898-.632 1.114 0 2.047.191 2.801.578a5.114 5.114 0 011.836 1.531c.473.64.82 1.352 1.047 2.14.226.79.347 1.595.367 2.423.02.281.027.59.027.93 0 .335-.007.644-.027.925a9.539 9.539 0 01-.367 2.422c-.227.79-.574 1.5-1.047 2.14a5.114 5.114 0 01-1.836 1.532c-.754.387-1.687.578-2.8.578-1.169 0-2.134-.215-2.9-.648-.76-.43-1.378-.957-1.85-1.575v6.672a.604.604 0 01-.169.45.613.613 0 01-.453.167zm5.683-6.699c1.11 0 1.989-.242 2.63-.73a4.097 4.097 0 001.386-1.914c.281-.79.441-1.633.48-2.535a26.44 26.44 0 000-1.575 8.613 8.613 0 00-.48-2.535 4.117 4.117 0 00-1.387-1.914c-.64-.488-1.52-.73-2.629-.73-1.074 0-1.941.254-2.601.757a4.528 4.528 0 00-1.457 1.903 6.899 6.899 0 00-.524 2.293c-.02.281-.027.648-.027 1.097 0 .45.008.817.027 1.098.02.75.192 1.492.524 2.223a4.508 4.508 0 001.5 1.832c.668.488 1.52.73 2.558.73zm0 0M42.582 121.79a5.595 5.595 0 01-2.504-.563 5.079 5.079 0 01-1.851-1.508 3.436 3.436 0 01-.707-2.125c0-1.274.52-2.297 1.554-3.067 1.035-.77 2.383-1.265 4.043-1.492l4.469-.617v-.988c0-.993-.309-1.778-.918-2.348-.613-.574-1.59-.86-2.93-.86-.98 0-1.77.192-2.375.579-.601.383-1.015.886-1.242 1.504-.094.28-.273.422-.539.422h-.45c-.226 0-.386-.059-.484-.184a.687.687 0 01-.14-.434c0-.265.101-.593.297-.984.199-.395.504-.785.922-1.172.414-.383.949-.707 1.609-.969.66-.261 1.46-.394 2.402-.394 1.114 0 2.032.148 2.758.45.727.3 1.293.69 1.7 1.167.402.48.69 1.012.859 1.59.172.582.254 1.156.254 1.719v9.375a.604.604 0 01-.168.449.613.613 0 01-.453.168h-.481a.613.613 0 01-.453-.168.604.604 0 01-.168-.45v-1.324a4.776 4.776 0 01-.961 1.012c-.414.34-.95.625-1.598.86-.652.234-1.465.351-2.445.351zm.281-1.634c.867 0 1.66-.187 2.375-.562.715-.375 1.285-.953 1.711-1.73.426-.778.637-1.759.637-2.942v-.957l-3.648.508c-1.547.203-2.715.562-3.508 1.066-.79.508-1.188 1.145-1.188 1.914 0 .621.18 1.129.54 1.524.359.39.816.687 1.37.882.555.2 1.125.297 1.711.297zm0 0M29.629 121.508a.613.613 0 01-.453-.168.62.62 0 01-.168-.45v-13.37c0-.188.058-.344.168-.465a.594.594 0 01.453-.184h.453c.188 0 .344.063.469.184a.633.633 0 01.183.465v1.293a3.224 3.224 0 011.47-1.461c.64-.32 1.433-.48 2.374-.48h1.047c.188 0 .34.054.453.167a.613.613 0 01.168.453v.39c0 .192-.055.34-.168.454a.613.613 0 01-.453.168H34.41c-1.133 0-2.027.328-2.687.984-.66.657-.989 1.551-.989 2.676v8.727a.586.586 0 01-.183.449.67.67 0 01-.469.168zm0 0M17.387 121.79c-1.621 0-2.985-.313-4.086-.942a6.24 6.24 0 01-2.516-2.633c-.578-1.125-.89-2.422-.95-3.883-.019-.848-.026-1.738-.026-2.676 0-.937.007-1.828.027-2.676.059-1.48.371-2.78.95-3.898a6.237 6.237 0 012.53-2.617c1.11-.63 2.47-.942 4.07-.942 1.302 0 2.415.192 3.337.579.925.382 1.68.863 2.261 1.433.586.574 1.02 1.149 1.301 1.73.285.583.434 1.07.453 1.465a.446.446 0 01-.14.407.64.64 0 01-.453.156h-.622c-.171 0-.293-.043-.367-.125-.078-.086-.152-.23-.226-.438a5.107 5.107 0 00-.95-1.675c-.44-.535-1.035-.977-1.78-1.32-.743-.348-1.684-.524-2.813-.524-1.68 0-3.04.457-4.086 1.367-1.047.91-1.606 2.426-1.684 4.547a78.247 78.247 0 000 5.066c.078 2.102.637 3.61 1.684 4.532 1.047.918 2.406 1.379 4.086 1.379 1.113 0 2.11-.211 2.996-.633a4.726 4.726 0 002.094-1.946c.507-.87.761-1.984.761-3.332v-1.437H18.32a.594.594 0 01-.453-.184.654.654 0 01-.168-.465v-.394c0-.203.055-.363.168-.477a.613.613 0 01.453-.168h6.051c.207 0 .367.055.48.168.114.114.169.274.169.477v2.48c0 1.5-.297 2.825-.891 3.97a6.353 6.353 0 01-2.602 2.671c-1.14.637-2.52.957-4.14.957zm0 0"/></g></svg>
